public/images/icons/balancer.svg

<svg fill="none" height="84" viewBox="0 0 84 84" width="84" xmlns="http://www.w3.org/2000/svg" xmlns:xlink="http://www.w3.org/1999/xlink"><linearGradient id="a" gradientUnits="userSpaceOnUse" x1=".000003" x2="67.2179" y1="42" y2="8.41347"><stop offset="0" stop-color="#ffe7e0"/><stop offset=".109375" stop-color="#f8dbf4"/><stop offset=".526042" stop-color="#c4ddff"/><stop offset="1" stop-color="#cae9ff"/></linearGradient><path clip-rule="evenodd" d="m84 42c0-23.1924-18.8076-42-42-42s-42 18.8076-42 42 18.8076 42 42 42 42-18.8076 42-42zm-55.5492-13.1796c0 3.2424 6.384 5.88 14.2548 5.88s14.2548-2.6376 14.2548-5.88-6.384-5.88-14.2548-5.88-14.2548 2.6376-14.2548 5.88zm14.322 17.2032c-10.1808 0-18.438-3.192-18.438-7.1316 0-2.184 2.5452-4.1412 6.5352-5.4432 2.8476 1.4868 7.1148 2.436 11.9028 2.436s9.0552-.9492 11.9028-2.436c3.9984 1.3104 6.5352 3.2592 6.5352 5.4432.0084 3.9396-8.2488 7.1316-18.438 7.1316zm-.1428 13.5324c-13.4316 0-24.318-3.8808-24.318-9.0804 0-2.7132 2.9652-5.1576 7.7112-6.8796 3.7044 2.3772 9.9204 3.5952 16.968 3.5952 6.8796 0 12.9612-1.4868 16.6992-3.7632 4.4772 1.7052 7.2576 4.0824 7.2576 6.7032 0 5.208-10.8864 9.4248-24.318 9.4248z" fill="url(#a)" fill-rule="evenodd"/></svg>

<svg width="84" height="84" viewBox="0 0 84 84" fill="none" xmlns="http://www.w3.org/2000/svg">
<path fill-rule="evenodd" clip-rule="evenodd" d="M84 42C84 18.8076 65.1924 0 42 0C18.8076 0 0 18.8076 0 42C0 65.1924 18.8076 84 42 84C65.1924 84 84 65.1924 84 42ZM28.4508 28.8204C28.4508 32.0628 34.8348 34.7004 42.7056 34.7004C50.5764 34.7004 56.9604 32.0628 56.9604 28.8204C56.9604 25.578 50.5764 22.9404 42.7056 22.9404C34.8348 22.9404 28.4508 25.578 28.4508 28.8204ZM42.7728 46.0236C32.592 46.0236 24.3348 42.8316 24.3348 38.892C24.3348 36.708 26.88 34.7508 30.87 33.4488C33.7176 34.9356 37.9848 35.8848 42.7728 35.8848C47.5608 35.8848 51.828 34.9356 54.6756 33.4488C58.674 34.7592 61.2108 36.708 61.2108 38.892C61.2192 42.8316 52.962 46.0236 42.7728 46.0236ZM42.63 59.556C29.1984 59.556 18.312 55.6752 18.312 50.4756C18.312 47.7624 21.2772 45.318 26.0232 43.596C29.7276 45.9732 35.9436 47.1912 42.9912 47.1912C49.8708 47.1912 55.9524 45.7044 59.6904 43.428C64.1676 45.1332 66.948 47.5104 66.948 50.1312C66.948 55.3392 56.0616 59.556 42.63 59.556Z" fill="url(#paint0_linear_56_86)"/>
<defs>
<linearGradient id="paint0_linear_56_86" x1="2.50172e-06" y1="42" x2="67.2179" y2="8.41347" gradientUnits="userSpaceOnUse">
<stop stop-color="#FFE7E0"/>
<stop offset="0.109375" stop-color="#F8DBF4"/>
<stop offset="0.526042" stop-color="#C4DDFF"/>
<stop offset="1" stop-color="#CAE9FF"/>
</linearGradient>
</defs>
</svg>
